packages/elvis-assets-icons/icons/svg/src/star.svg

<svg width="24" height="24" viewBox="0 0 24 24" fill="none" xmlns="http://www.w3.org/2000/svg">
<g clip-path="url(#clip0)">
<path d="M5.59364 23.5C5.42932 23.5 5.265 23.4738 5.10393 23.4248C4.68906 23.2923 4.34903 23.0078 4.14891 22.6202C3.98459 22.3063 3.92765 21.9383 3.98784 21.5867L5.06651 15.309L0.494781 10.8676C0.182407 10.5634 0.00669575 10.1562 0.000187945 9.71799C-0.00631985 9.28137 0.156375 8.86765 0.457361 8.55368C0.707911 8.29531 1.03981 8.12524 1.39448 8.07291L7.71518 7.15389L10.5461 1.41902C10.7348 1.02983 11.0651 0.735479 11.4734 0.591575C11.6459 0.53107 11.8265 0.5 12.0087 0.5C12.2544 0.5 12.4935 0.5556 12.7181 0.665162C13.0451 0.825418 13.3135 1.0936 13.473 1.42392L16.2876 7.14572L22.6067 8.06474C23.495 8.19392 24.1116 9.02627 23.9831 9.91749C23.9326 10.274 23.7618 10.6076 23.5064 10.8578L18.933 15.3008L20.0117 21.5786C20.0849 22.0086 19.9873 22.4436 19.7367 22.8001C19.4845 23.1582 19.1103 23.3953 18.6825 23.4673C18.593 23.4836 18.5002 23.4918 18.4075 23.4918C18.1472 23.4918 17.8869 23.428 17.6558 23.3054L12.0055 20.3407L6.34529 23.3136C6.11264 23.4362 5.85233 23.5 5.59364 23.5ZM8.98258 8.26424C8.86381 8.50462 8.63441 8.67142 8.37084 8.71066L1.62714 9.69182L6.50799 14.4341C6.70159 14.6221 6.78945 14.8936 6.7439 15.1601L5.59201 21.8647L11.6296 18.694C11.7451 18.6318 11.8753 18.6007 12.0055 18.6007C12.1356 18.6007 12.2658 18.6318 12.3813 18.6923L18.4091 21.8549L17.2572 15.1503C17.2117 14.8838 17.2995 14.6123 17.4932 14.4243L22.374 9.68201L15.6319 8.70085C15.3667 8.66161 15.1373 8.49481 15.0202 8.25443L12.0103 2.1369L8.98258 8.26424Z" fill="black"/>
</g>
<defs>
<clipPath id="clip0">
<rect width="24" height="24" fill="white"/>
</clipPath>
</defs>
</svg>

<svg width="24" height="24" fill="none" xmlns="http://www.w3.org/2000/svg"><g clip-path="url(#clip0)"><path d="M5.594 23.5a1.621 1.621 0 01-1.445-.88 1.645 1.645 0 01-.161-1.033l1.079-6.278-4.572-4.441A1.626 1.626 0 010 9.718c-.006-.437.156-.85.457-1.164.25-.259.583-.429.937-.481l6.321-.92 2.831-5.734a1.626 1.626 0 012.172-.754c.327.16.595.429.755.759l2.815 5.722 6.319.919c.888.129 1.505.961 1.376 1.852-.05.357-.221.69-.477.94l-4.573 4.444 1.079 6.278a1.636 1.636 0 01-1.605 1.913c-.26 0-.52-.064-.751-.187l-5.65-2.964-5.66 2.973a1.62 1.62 0 01-.752.186zM8.983 8.264a.818.818 0 01-.612.447l-6.744.98 4.881 4.743c.194.188.281.46.236.726l-1.152 6.705 6.038-3.171a.813.813 0 01.752-.002l6.027 3.163-1.152-6.705a.819.819 0 01.236-.726l4.881-4.742-6.742-.981a.812.812 0 01-.612-.447l-3.01-6.117-3.027 6.127z" fill="#000"/></g><defs><clipPath id="clip0"><path fill="#fff" d="M0 0h24v24H0z"/></clipPath></defs></svg>
